X:27
T:No 1. WHG.027
R:jig
S:W.H.Giles MS,Bampton,Oxfordshire,1839p26
O:England
H:donated by Mrs W.R.Kettlewell to VWML,Apr 1927.
A:Bampton, Oxfordshire
Z:PJHeadford – VMP 2009
M:6/8
L:1/8
Q:3/8=120
K:G
|:g2B B2B|B2c d2d|g2B e2d|cBA d3|
g2B B2B|B2c e2d|g2B e2d|cBA G3:|
d3 def|g3 gab|a2b aea|gfe dBc|
d3 def|g3 gab|bag age|de^c def” DC”|]

